map_marker_monochrome/openmoji_broken_heart.svg

<svg xmlns="http://www.w3.org/2000/svg" width="24" height="24" viewBox="0 0 24 24"> <g transform="scale(0.333333333)">  <g id="line">
    <path fill="none" stroke="#000000" stroke-linecap="round" stroke-linejoin="round" stroke-miterlimit="10" stroke-width="2" d="M49.5657,15.6092c-4.3218,0-8.187,2.3611-10.1887,6.1814L36,29.678l7,6.0169l-6,8.4238L42,51l-3.5852,9.1622l20.462-26.2371 c1.4419-1.9653,2.2134-4.3222,2.2134-6.7934C61.0902,20.7782,55.9202,15.6092,49.5657,15.6092z"/>
    <path fill="none" stroke="#000000" stroke-miterlimit="10" stroke-width="2" d="M37.0994,50.9843l-5.0534-6.9615l5.9387-8.0457 l-7.0457-5.9463c0,0,1.6215-7.5485,1.455-7.8939c-1.9444-4.0263-5.9185-6.5278-10.3711-6.5278 c-6.3535,0-11.5225,5.169-11.5225,11.5225c0,2.1167,0.5776,4.185,1.6714,5.9814l0.6602,0.9737l20.4624,26.2299l0.3502-0.449 L37.0994,50.9843z"/>
  </g></g></svg>

<svg xmlns="http://www.w3.org/2000/svg" width="24" height="24" viewBox="0 0 24 24"> <g transform="translate(0.0 1.199415126149363) scale(0.4563622430067335)">
  
  <g
     id="line"
     transform="translate(-9.5004,-14.6091)">
    <path
       fill="none"
       stroke="#000"
       stroke-linecap="round"
       stroke-linejoin="round"
       stroke-miterlimit="10"
       stroke-width="2"
       d="m 49.5657,15.6092 c -4.3218,0 -8.187,2.3611 -10.1887,6.1814 L 36,29.678 43,35.6949 37,44.1187 42,51 38.4148,60.1622 58.8768,33.9251 c 1.4419,-1.9653 2.2134,-4.3222 2.2134,-6.7934 0,-6.3535 -5.17,-11.5225 -11.5245,-11.5225 z"
       id="path2" />
    <path
       fill="none"
       stroke="#000"
       stroke-miterlimit="10"
       stroke-width="2"
       d="M 37.0994,50.9843 32.046,44.0228 37.9847,35.9771 30.939,30.0308 c 0,0 1.6215,-7.5485 1.455,-7.8939 -1.9444,-4.0263 -5.9185,-6.5278 -10.3711,-6.5278 -6.3535,0 -11.5225,5.169 -11.5225,11.5225 0,2.1167 0.5776,4.185 1.6714,5.9814 l 0.6602,0.9737 20.4624,26.2299 0.3502,-0.449 z"
       id="path4" />
  </g>
</g></svg>
